X:1
T:Title
%%score { ( 1 4 ) | ( 2 3 ) }
L:1/8
Q:1/4=100
M:6/8
K:C
V:1 treble nm="Grand Piano"
V:4 treble 
V:2 bass 
V:3 bass 
V:1
 [G,CE]>C[A,CF][K:bass] [G,CE]2 [E,C] | [CEG]>E[FA] [EG]3 | cBA G2 C | E2 [B,D] C3 | %4
w: John~B.~Dykes * * * *||||
 D2 D F>E[B,D] | z3 G3 | G2 G _B>AG | A2 _B c3 | A2 A A2 A | z3 [Fd]3[K:bass] | cBA G2 C | %11
w: |||||||
 E2 [B,D] C3 |] %12
w: |
V:2
 z z/ E,/C, C,2 C, | z z/ C/[C,F,] [C,G,]3 | [C,G,]2 [D,F,B,] [E,G,C]2 [F,A,] | %3
 [G,C]2 [G,,F,] [C,E,]3 | [G,B,]2 [G,B,] D>CG, | C,2 C, z2 F, | z3 .G,3 | [F,C]2 [F,G,C] [F,A,C]3 | %8
 [F,A,C]2 [F,A,C] [E,G,^C]2 [E,G,C] | [D,F,D]2 [C,A,] .[B,,G,]3 | %10
 [C,G,]2 [D,F,B,] [E,G,C]2 [F,A,] | [G,C]2 [G,,F,] [C,E,]3 |] %12
V:3
 .C,3 z3 | .C,3 z3 | x6 | x6 | z3 .G,3 | z3 C,3 | [C,E,C]2 [C,E,C] [C,C]->[C,F,C][C,E,C] | x6 | %8
 x6 | x6 | x6 | x6 |] %12
V:4
 x3[K:bass] x3 | x6 | .E3 z3 | x6 | x6 | [G,CE]2 [G,DF] [G,E]2 D | x6 | x6 | x6 | %9
 AB[Fc] z[K:bass] A,,G,, | .E3 z3 | x6 |] %12

